icons/desktop/20/makeup-20.svg

<svg width="20" height="20" viewBox="0 0 20 20" fill="none" xmlns="http://www.w3.org/2000/svg">
<path fill-rule="evenodd" clip-rule="evenodd" d="M10 3.75C12.4853 3.75 14.5 5.76472 14.5 8.25C14.5 10.7353 12.4853 12.75 10 12.75C7.51472 12.75 5.5 10.7353 5.5 8.25C5.5 5.76472 7.51472 3.75 10 3.75ZM10 5.5C8.48122 5.5 7.25 6.73122 7.25 8.25C7.25 9.76878 8.48122 11 10 11C11.5188 11 12.75 9.76878 12.75 8.25C12.75 6.73122 11.5188 5.5 10 5.5Z" fill="black"/>
<path fill-rule="evenodd" clip-rule="evenodd" d="M10 0C14.5562 0 18.25 3.69375 18.25 8.25C18.25 10.4339 17.4001 12.4183 16.0156 13.8936H16.9971L17.0957 13.8994C18.055 14.0081 18.7498 14.8253 18.75 15.7637V16.6846C18.75 18.0931 17.7312 19.3166 16.3174 19.5283C14.4737 19.805 12.3502 20 10 20C8.19798 20 6.07333 19.8854 3.71289 19.5332C2.30738 19.3228 1.25002 18.1147 1.25 16.6836V15.7637C1.25022 14.8253 1.94501 14.0081 2.9043 13.8994C2.9369 13.8957 2.97011 13.8936 3.00293 13.8936H3.9834C2.59908 12.4186 1.75 10.4339 1.75 8.25C1.75 3.69375 5.44375 0 10 0ZM3.08301 15.6436C3.04077 15.657 3.00018 15.6984 3 15.7637V16.6836C3.00002 17.2384 3.41328 17.7181 3.97168 17.8018C6.23503 18.1395 8.27216 18.25 10 18.25C12.2536 18.25 14.2904 18.0622 16.0586 17.7969C16.5946 17.7165 17 17.2479 17 16.6846V15.7637C16.9998 15.6984 16.9592 15.657 16.917 15.6436H3.08301ZM10 1.75C6.41025 1.75 3.5 4.66025 3.5 8.25C3.5 10.666 4.82009 12.7724 6.78027 13.8936H13.2207C15.1805 12.7722 16.5 10.6655 16.5 8.25C16.5 4.66025 13.5898 1.75 10 1.75Z" fill="black"/>
</svg>

<!-- This Source Code Form is subject to the terms of the Mozilla Public
   - License, v. 2.0. If a copy of the MPL was not distributed with this
   - file, You can obtain one at http://mozilla.org/MPL/2.0/. -->
<svg xmlns="http://www.w3.org/2000/svg" width="20" height="20" fill="context-fill" fill-opacity="context-fill-opacity" viewBox="0 0 20 20">
    <path fill-rule="evenodd" d="M10 3.75a4.5 4.5 0 1 1 0 9 4.5 4.5 0 0 1 0-9m0 1.75a2.75 2.75 0 1 0 0 5.5 2.75 2.75 0 0 0 0-5.5" clip-rule="evenodd" />
    <path fill-rule="evenodd" d="M10 0a8.25 8.25 0 0 1 6.016 13.894h.981l.099.005a1.87 1.87 0 0 1 1.654 1.865v.92a2.87 2.87 0 0 1-2.433 2.844 42.6 42.6 0 0 1-12.604.005 2.89 2.89 0 0 1-2.463-2.85v-.92A1.87 1.87 0 0 1 2.904 13.9a1 1 0 0 1 .099-.005h.98A8.25 8.25 0 0 1 10 0M3.083 15.644a.12.12 0 0 0-.083.12v.92c0 .554.413 1.034.972 1.118a40.832 40.832 0 0 0 12.087-.005c.536-.08.941-.55.941-1.112v-.921a.12.12 0 0 0-.083-.12zM10 1.75a6.5 6.5 0 0 0-6.5 6.5 6.5 6.5 0 0 0 3.28 5.644h6.44A6.5 6.5 0 0 0 16.5 8.25a6.5 6.5 0 0 0-6.5-6.5" clip-rule="evenodd" />
</svg>
